!!!ONB: MCCC : IWM0402_03 : Extracted Monophonic Melody
!!!COM: Mozart, Wolfgang Amadeus
!!!OPR: Piano Sonata No.2
!!!OMV: 3
!!!SCT: K.280 ; K⁶.189e
!!!ODT: 1774///
**kern
*thru
*staff1
*>A
*clefG2
*k[b-]
*F:
*M3/8
*MM160
16ccc
16aa
=1
8ff
8ff
8ff
=2
8bb-
8r
8r
=3
8aa
8r
8r
=4
8gg
8r
8r
=5
16ff
16gg
16aa
16ff
16cc
16cc#
=6
16dd
16ee
16ff
16dd
16g
16a
=7
16b-
16cc
16dd
16b-
16d
16f
=8
16e
16f
16g
16e
16cc
16a
=9
8f
8f
8f
=10
8b-
8r
8r
=11
8a
8r
8r
=12
8g
8r
8r
=13
16f
16g
16a
16b-
16cc
16cc#
=14
16dd
16ee
16ff
16gg
16aa
16bb-
=15
8ccc
8ff
8ee
=16
4ff
8r
=17
8b-
8a
8g
=18
8g
8f
8f
=19
8f
8g
8e
=20
8f
8r
8r
=21
8dd
8cc
8b-
=22
8b-
8a
8a
=23
8a
8b-
8g
=24
8a
8r
8r
=25
16r
16a
16dd
16ff
8aa
=26
16r
16g
16cc
16ee
8gg
=27
16r
16f
16b
16dd
8ff
=28
16r
16e
16g
16cc
8ee
=29
16r
16a
16dd
16cc#
16ee
16dd
=30
16ff
16ee
16gg
16ff
16aa
16gg#
=31
8aa
8r
8cc
=32
8b
8r
8r
=33
8r
8r
8ccc
=34
8bb
8r
8r
=35
8r
8r
8cc
=36
8b
8r
8r
=37
4.r
=38
8.ff
16ff
8ff
=39
8.aa
16gg
8ff
=40
8.ff
16ff
8ff
=41
8.aa
16gg
8ff
=42
8ee
8r
8ee
=43
4gg
8ff
=44
8ee
8r
8ee
=45
4gg
8ff
=46
8ee
8r
8ee
=47
8gg
8ff
8ee
=48
8ee
8dd
8cc
=49
8.cc
16dd
8b
=50
8.ff
16ff
8ff
=51
8.aa
16gg
8ff
=52
8.ff
16ff
8ff
=53
8.aa
16gg
8ff
=54
16ee
16cc
16g
16cc
16ee
16cc
=55
16gg
16g
16ff#
16g
16ff
16g
=56
16ee
16cc
16g
16cc
16ee
16cc
=57
16gg
16g
16ff#
16g
16ff
16g
=58
16ee
16gg
16ccc
16bb
16aa
16gg
=59
16ff
16gg
16aa
16ff
16dd#
16ee
=60
16dd
16ee
16ff
16dd
16b
16cc
=61
16dd
16ff
16ee
16cc
16b
16dd
=62
16cc
16dd
16ee
16cc
16a
16g
=63
16f
16g
16a
16f
16d#
16e
=64
16d
16e
16f
16d
16B
16c
=65
16d
16f
16e
16c
16B
16d
=66
8c
8g
8e
=67
8c
8r
8r
=68
8r
8cc
8a
=69
8f
8r
8r
=70
8r
8ff
8dd
=71
8b
8r
8r
=72
16r
16cc
16b
16cc
16ee
16gg
=73
16r
16ff
16ee
16ff
16dd
16b
=74
16r
16cc
16b
16cc
16ee
16gg
=75
16r
16ff
16ee
16ff
16dd
16b
=76
8cc
8ccc
8ccc
=77
8ccc
8r
*>A
*M3/8
16ccc
16aa
=78
8ff
8ff
8ff
=79
8bb-
8r
8r
=80
8aa
8r
8r
=81
8gg
8r
8r
=82
16ff
16gg
16aa
16ff
16cc
16cc#
=83
16dd
16ee
16ff
16dd
16g
16a
=84
16b-
16cc
16dd
16b-
16d
16f
=85
16e
16f
16g
16e
16cc
16a
=86
8f
8f
8f
=87
8b-
8r
8r
=88
8a
8r
8r
=89
8g
8r
8r
=90
16f
16g
16a
16b-
16cc
16cc#
=91
16dd
16ee
16ff
16gg
16aa
16bb-
=92
8ccc
8ff
8ee
=93
4ff
8r
=94
8b-
8a
8g
=95
8g
8f
8f
=96
8f
8g
8e
=97
8f
8r
8r
=98
8dd
8cc
8b-
=99
8b-
8a
8a
=100
8a
8b-
8g
=101
8a
8r
8r
=102
16r
16a
16dd
16ff
8aa
=103
16r
16g
16cc
16ee
8gg
=104
16r
16f
16b
16dd
8ff
=105
16r
16e
16g
16cc
8ee
=106
16r
16a
16dd
16cc#
16ee
16dd
=107
16ff
16ee
16gg
16ff
16aa
16gg#
=108
8aa
8r
8cc
=109
8b
8r
8r
=110
8r
8r
8ccc
=111
8bb
8r
8r
=112
8r
8r
8cc
=113
8b
8r
8r
=114
4.r
=115
8.ff
16ff
8ff
=116
8.aa
16gg
8ff
=117
8.ff
16ff
8ff
=118
8.aa
16gg
8ff
=119
8ee
8r
8ee
=120
4gg
8ff
=121
8ee
8r
8ee
=122
4gg
8ff
=123
8ee
8r
8ee
=124
8gg
8ff
8ee
=125
8ee
8dd
8cc
=126
8.cc
16dd
8b
=127
8.ff
16ff
8ff
=128
8.aa
16gg
8ff
=129
8.ff
16ff
8ff
=130
8.aa
16gg
8ff
=131
16ee
16cc
16g
16cc
16ee
16cc
=132
16gg
16g
16ff#
16g
16ff
16g
=133
16ee
16cc
16g
16cc
16ee
16cc
=134
16gg
16g
16ff#
16g
16ff
16g
=135
16ee
16gg
16ccc
16bb
16aa
16gg
=136
16ff
16gg
16aa
16ff
16dd#
16ee
=137
16dd
16ee
16ff
16dd
16b
16cc
=138
16dd
16ff
16ee
16cc
16b
16dd
=139
16cc
16dd
16ee
16cc
16a
16g
=140
16f
16g
16a
16f
16d#
16e
=141
16d
16e
16f
16d
16B
16c
=142
16d
16f
16e
16c
16B
16d
=143
8c
8g
8e
=144
8c
8r
8r
=145
8r
8cc
8a
=146
8f
8r
8r
=147
8r
8ff
8dd
=148
8b
8r
8r
=149
16r
16cc
16b
16cc
16ee
16gg
=150
16r
16ff
16ee
16ff
16dd
16b
=151
16r
16cc
16b
16cc
16ee
16gg
=152
16r
16ff
16ee
16ff
16dd
16b
=153
8cc
8ccc
8ccc
=154
8ccc
8r
*>B
8r
=155
8.cc
16cc
8cc
=156
8.ee-
16dd
8cc
=157
8.cc
16cc
8cc
=158
8.ee-
16dd
8cc
=159
4.ccc
=160
[4.bb-
=161
4.bb-]
=162
4gg
8r
=163
8.b-
16b-
8b-
=164
8.dd-
16cc
8b-
=165
8.b-
16b-
8b-
=166
8.dd-
16cc
8b-
=167
16c
16cc
16d
16dd
16e
16ee
=168
16f
16ff
16g
16gg
16a
16aa
=169
4.bb-
=170
4.aa
=171
16A
16a
16B
16b
16c#
16cc#
=172
16d
16dd
16e
16ee
16f
16ff
=173
4.gg
=174
4.ff
=175
16r
16ee-
16dd
16ee-
16gg
16ee-
=176
16r
16dd
16cc#
16dd
16ff
16dd
=177
16r
16cc#
16b
16cc#
16ee
16cc#
=178
16r
16dd
16cc#
16dd
16ff
16dd
=179
8ddd
8r
8r
=180
8ccc#
8r
8r
=181
8ddd
8r
8r
=182
8ccc#
8r
8r
=183
4.r
=184
8r
8r
16ccc
16aa
=185
8ff
8ff
8ff
=186
8bb-
8r
8r
=187
8aa
8r
8r
=188
8gg
8r
8r
=189
16ff
16gg
16aa
16ff
16cc
16cc#
=190
16dd
16ee
16ff
16dd
16g
16a
=191
16b-
16cc
16dd
16b-
16d
16f
=192
16e
16f
16g
16e
16cc
16a
=193
8f
8f
8f
=194
8b-
8r
8r
=195
8a
8r
8r
=196
8g
8r
8r
=197
16f
16g
16a
16b-
16cc
16cc#
=198
16dd
16ee
16ff
16gg
16aa
16bb-
=199
8ccc
8ff
8ee
=200
4ff
8r
=201
8b-
8a
8g
=202
8g
8f
8f
=203
8f
8g
8e
=204
8f
8r
8r
=205
8dd
8cc
8b-
=206
8b-
8a
8a
=207
8a
8b-
8g
=208
8a
8r
8r
=209
16r
16a
16dd
16ff
8aa
=210
16r
16g
16cc
16ee
8gg
=211
16r
16f
16b
16dd
8ff
=212
16r
16e
16g
16cc
8ee
=213
16r
16dd
16gg
16bb-
8ddd
=214
16r
16cc
16ff
16aa
8ccc
=215
16r
16b-
16ee
16gg
8bb-
=216
16r
16a
16cc
16ff
8aa
=217
16r
16dd
16gg
16ff#
16aa
16gg
=218
16bb-
16aa
16ccc
16bb-
16ddd
16ccc#
=219
8ddd
8r
8ff
=220
8ee
8r
8r
=221
8r
8r
8fff
=222
8eee
8r
8r
=223
8r
8r
8ff
=224
8ee
8r
8r
=225
4.r
=226
8.bb-
16bb-
8bb-
=227
8.ddd
16ccc
8bb-
=228
8.bb-
16bb-
8bb-
=229
8.ddd
16ccc
8bb-
=230
8aa
8r
8aa
=231
4ccc
8bb-
=232
8aa
8r
8aa
=233
4ccc
8bb-
=234
8aa
8r
8aa
=235
8ccc
8bb-
8aa
=236
8aa
8gg
8ff
=237
8.ff
16gg
8ee
=238
8.b-
16b-
8b-
=239
8.dd
16cc
8b-
=240
8.b-
16b-
8b-
=241
8.dd
16cc
8b-
=242
16a
16f
16c
16f
16a
16f
=243
16cc
16c
16b
16c
16b-
16c
=244
16a
16f
16c
16f
16a
16f
=245
16cc
16c
16b
16c
16b-
16c
=246
16a
16cc
16ff
16ee
16dd
16cc
=247
16b-
16cc
16dd
16b-
16g#
16a
=248
16g
16a
16b-
16g
16e
16f
=249
16g
16b-
16a
16f
16e
16g
=250
16f
16g
16a
16f
16d
16c
=251
16B-
16c
16d
16B-
16G#
16A
=252
16G
16A
16B-
16G
16E
16F
=253
16G
16B-
16A
16F
16E
16G
=254
8r
8cc
8a
=255
8f
8r
8r
=256
8r
8ff
8dd
=257
8b-
8r
8r
=258
8r
8bb-
8gg
=259
8ee
8r
8r
=260
16r
16ff
16ee
16ff
16aa
16ccc
=261
16r
16bb-
16aa
16bb-
16gg
16ee
=262
16r
16ff
16ee
16ff
16cc
16a
=263
16r
16b-
16a
16b-
16g
16e
=264
4f
8r
=265
4cc:
8r
=266
8ff
8ff
8ff
=267
8ff
8r
*>B
8r
=268
8.cc
16cc
8cc
=269
8.ee-
16dd
8cc
=270
8.cc
16cc
8cc
=271
8.ee-
16dd
8cc
=272
4.ccc
=273
[4.bb-
=274
4.bb-]
=275
4gg
8r
=276
8.b-
16b-
8b-
=277
8.dd-
16cc
8b-
=278
8.b-
16b-
8b-
=279
8.dd-
16cc
8b-
=280
16c
16cc
16d
16dd
16e
16ee
=281
16f
16ff
16g
16gg
16a
16aa
=282
4.bb-
=283
4.aa
=284
16A
16a
16B
16b
16c#
16cc#
=285
16d
16dd
16e
16ee
16f
16ff
=286
4.gg
=287
4.ff
=288
16r
16ee-
16dd
16ee-
16gg
16ee-
=289
16r
16dd
16cc#
16dd
16ff
16dd
=290
16r
16cc#
16b
16cc#
16ee
16cc#
=291
16r
16dd
16cc#
16dd
16ff
16dd
=292
8ddd
8r
8r
=293
8ccc#
8r
8r
=294
8ddd
8r
8r
=295
8ccc#
8r
8r
=296
4.r
=297
8r
8r
16ccc
16aa
=298
8ff
8ff
8ff
=299
8bb-
8r
8r
=300
8aa
8r
8r
=301
8gg
8r
8r
=302
16ff
16gg
16aa
16ff
16cc
16cc#
=303
16dd
16ee
16ff
16dd
16g
16a
=304
16b-
16cc
16dd
16b-
16d
16f
=305
16e
16f
16g
16e
16cc
16a
=306
8f
8f
8f
=307
8b-
8r
8r
=308
8a
8r
8r
=309
8g
8r
8r
=310
16f
16g
16a
16b-
16cc
16cc#
=311
16dd
16ee
16ff
16gg
16aa
16bb-
=312
8ccc
8ff
8ee
=313
4ff
8r
=314
8b-
8a
8g
=315
8g
8f
8f
=316
8f
8g
8e
=317
8f
8r
8r
=318
8dd
8cc
8b-
=319
8b-
8a
8a
=320
8a
8b-
8g
=321
8a
8r
8r
=322
16r
16a
16dd
16ff
8aa
=323
16r
16g
16cc
16ee
8gg
=324
16r
16f
16b
16dd
8ff
=325
16r
16e
16g
16cc
8ee
=326
16r
16dd
16gg
16bb-
8ddd
=327
16r
16cc
16ff
16aa
8ccc
=328
16r
16b-
16ee
16gg
8bb-
=329
16r
16a
16cc
16ff
8aa
=330
16r
16dd
16gg
16ff#
16aa
16gg
=331
16bb-
16aa
16ccc
16bb-
16ddd
16ccc#
=332
8ddd
8r
8ff
=333
8ee
8r
8r
=334
8r
8r
8fff
=335
8eee
8r
8r
=336
8r
8r
8ff
=337
8ee
8r
8r
=338
4.r
=339
8.bb-
16bb-
8bb-
=340
8.ddd
16ccc
8bb-
=341
8.bb-
16bb-
8bb-
=342
8.ddd
16ccc
8bb-
=343
8aa
8r
8aa
=344
4ccc
8bb-
=345
8aa
8r
8aa
=346
4ccc
8bb-
=347
8aa
8r
8aa
=348
8ccc
8bb-
8aa
=349
8aa
8gg
8ff
=350
8.ff
16gg
8ee
=351
8.b-
16b-
8b-
=352
8.dd
16cc
8b-
=353
8.b-
16b-
8b-
=354
8.dd
16cc
8b-
=355
16a
16f
16c
16f
16a
16f
=356
16cc
16c
16b
16c
16b-
16c
=357
16a
16f
16c
16f
16a
16f
=358
16cc
16c
16b
16c
16b-
16c
=359
16a
16cc
16ff
16ee
16dd
16cc
=360
16b-
16cc
16dd
16b-
16g#
16a
=361
16g
16a
16b-
16g
16e
16f
=362
16g
16b-
16a
16f
16e
16g
=363
16f
16g
16a
16f
16d
16c
=364
16B-
16c
16d
16B-
16G#
16A
=365
16G
16A
16B-
16G
16E
16F
=366
16G
16B-
16A
16F
16E
16G
=367
8r
8cc
8a
=368
8f
8r
8r
=369
8r
8ff
8dd
=370
8b-
8r
8r
=371
8r
8bb-
8gg
=372
8ee
8r
8r
=373
16r
16ff
16ee
16ff
16aa
16ccc
=374
16r
16bb-
16aa
16bb-
16gg
16ee
=375
16r
16ff
16ee
16ff
16cc
16a
=376
16r
16b-
16a
16b-
16g
16e
=377
4f
8r
=378
4cc:
8r
=379
8ff
8ff
8ff
=380
8ff
8r
==
*-
